X: 4068
T: SCOTCH MIST
R: Strathspey.
%R: strathspey
B: James Kerr "Merry Melodies" v.4 p.10 #68
Z: 2016 John Chambers <jc:trillian.mit.edu>
M: C
L: 1/8
K: D
|:\
A>F A<d B>G B<d | c>de>c d2f2 |\
g>f g<b a<f e<d |[1 B<B g>f (3efd (3cdB |[2 B<g f>e d3f ||
|:\
a>b a<f d>e f<d | g>ab>g | e2 (3(efg) |\
a>b a<f d>e f<d |[1 B<B g>f e3f :|[2 B<g f>e d3z |]

%%sep 1 1 500
%%sep 1 1 500

